X: 114102
Q: "Reel."
M: C
L: 1/8
K: F
uc !segno!|:\
fgag f2(cf) | gfga baga |
fgag f2(Ac) | BAGA Bcde |\
fgag f2(cf) | gfga baga |\
fgaf gefc | BAGA BcdB |]


